X: 91
M: C
L: 1/8
K: Em
E | E> F G> A (Bc) d2 |
(AB) (AG) (FD) D2 | E> F G> A (Bc) d2 |
(Bg) (f>e) B<e e ][ B | e> f g> e
d> c B2 | G> B d> B A> F D2 |
e> g f> g e2 B2 | G> A B>

